src/assets/svg/icons/fa/nuevos/classic/light/snake classic light.svg

<svg xmlns="http://www.w3.org/2000/svg" viewBox="0 0 512 512"><!--! Font Awesome Pro 6.4.0 by @fontawesome - https://fontawesome.com License - https://fontawesome.com/license (Commercial License) Copyright 2023 Fonticons, Inc. --><path d="M293.9 88H277 180C115.9 88 64 139.9 64 204s51.9 116 116 116H344c30.9 0 56 25.1 56 56s-25.1 56-56 56H256.1h0l-.1 0 0 0-140.8 0c-8.4 0-16.8 1.7-24.6 4.9L44.8 456l45.8 19.1c7.8 3.3 16.2 4.9 24.6 4.9h60.7 0l.1 0 0 0 168 0c57.4 0 104-46.6 104-104s-46.6-104-104-104H180c-37.6 0-68-30.4-68-68s30.4-68 68-68h92 17.1l9.5 14.2c14.1 21.1 37.7 33.8 63.1 33.8h4.5c12.3 0 24.5-2.7 35.6-7.9L455 151.3c15.3-7.1 25-22.5 25-39.3s-9.8-32.2-25-39.3L400.5 47.3C390.2 42.5 379 40 367.7 40c-25.8 0-49.9 12.8-64.2 34l-9.5 14zM176 512l-.1 0H115.2c-12.7 0-25.2-2.5-36.9-7.4L14.8 478.2C5.8 474.4 0 465.7 0 456s5.8-18.4 14.8-22.2l63.5-26.5c11.7-4.9 24.2-7.4 36.9-7.4H256l.1 0H344c13.3 0 24-10.7 24-24s-10.7-24-24-24H180C98.3 352 32 285.7 32 204S98.3 56 180 56h97c20.3-29.9 54.2-48 90.7-48c16 0 31.9 3.5 46.4 10.3l54.4 25.4C495 56.1 512 82.7 512 112s-17 55.9-43.5 68.3l-53.1 24.8c-8.7 4-17.8 7-27.1 8.8c-7.2 1.4-14.6 2.1-22 2.1h-4.5c-6 0-11.9-.5-17.7-1.5c-8-1.3-15.7-3.5-23.1-6.5c-19.7-8-36.8-21.8-48.9-40H180c-19.9 0-36 16.1-36 36s16.1 36 36 36H315.1 344c6 0 11.9 .4 17.7 1.1c1.5 .2 3 .4 4.5 .7c6.8 1.1 13.5 2.8 19.9 4.8C440.6 264.4 480 315.6 480 376c0 75.1-60.9 136-136 136H176zM352 80a16 16 0 1 1 32 0 16 16 0 1 1 -32 0zm16 48a16 16 0 1 1 0 32 16 16 0 1 1 0-32z"/></svg>

<svg xmlns="http://www.w3.org/2000/svg" viewBox="0 0 512 512"><path d="M384 80C384 88.84 376.8 96 368 96C359.2 96 352 88.84 352 80C352 71.16 359.2 64 368 64C376.8 64 384 71.16 384 80zM352 144C352 135.2 359.2 128 368 128C376.8 128 384 135.2 384 144C384 152.8 376.8 160 368 160C359.2 160 352 152.8 352 144zM176 512H175.9H115.2C102.5 512 89.98 509.5 78.28 504.6L14.77 478.2C5.826 474.4 0 465.7 0 456C0 446.3 5.826 437.6 14.77 433.8L78.28 407.4C89.98 402.5 102.5 400 115.2 400H256H256.1H344C357.3 400 368 389.3 368 376C368 362.7 357.3 352 344 352H180C98.26 352 32 285.7 32 204C32 122.3 98.26 56 180 56H276.1C297.3 26.13 331.2 8 367.7 8C383.7 8 399.5 11.51 414.1 18.29L468.5 43.7C495 56.08 512 82.72 512 112C512 141.3 495 167.9 468.5 180.3L415.4 205.1C406.7 209.1 397.6 212.1 388.3 213.9C381 215.3 373.6 216 366.2 216H361.7C355.7 216 349.8 215.5 344 214.5C336 213.2 328.3 211 320.9 208C301.3 199.1 284.1 186.2 272 168H180C160.1 168 144 184.1 144 204C144 223.9 160.1 240 180 240H344C349.1 240 355.9 240.4 361.7 241.1C363.2 241.3 364.7 241.6 366.2 241.8C373 242.9 379.7 244.6 386.1 246.7C440.6 264.4 480 315.6 480 376C480 451.1 419.1 512 344 512H176zM293.9 88H180C115.9 88 64 139.9 64 204C64 268.1 115.9 320 180 320H344C374.9 320 400 345.1 400 376C400 406.9 374.9 432 344 432H256.1H256H115.2C106.8 432 98.38 433.7 90.58 436.9L44.8 456L90.58 475.1C98.38 478.3 106.8 480 115.2 480H175.9H344C401.4 480 448 433.4 448 376C448 318.6 401.4 272 344 272H180C142.4 272 112 241.6 112 204C112 166.4 142.4 136 180 136H289.1L298.6 150.2C312.7 171.3 336.3 184 361.7 184H366.2C378.5 184 390.7 181.3 401.8 176.1L454.1 151.3C470.2 144.2 480 128.9 480 112C480 95.15 470.2 79.82 454.1 72.7L400.5 47.29C390.2 42.49 379 40 367.7 40C341.8 40 317.8 52.84 303.4 73.99L293.9 88z"/></svg>
